src/images/self-hosted-head.svg

<svg xmlns="http://www.w3.org/2000/svg" width="335" height="315" fill="none" viewBox="0 0 335 315"><path fill="#232D4F" fill-rule="evenodd" d="M162.032 150.065L318.508 132.248L334.658 150.065V314.337H162.009L162.032 150.065Z" clip-rule="evenodd"/><path fill="#4C5986" fill-rule="evenodd" d="M145.891 132.217H318.539V296.493H145.891V132.217Z" clip-rule="evenodd"/><path fill="#161E3A" fill-rule="evenodd" d="M145.879 296.463L162.182 314.895L334.734 314.307L318.619 296.432L145.879 296.463Z" clip-rule="evenodd"/><path fill="#fff" fill-rule="evenodd" d="M165.408 152.103H300.878V276.499H165.408V152.103Z" clip-rule="evenodd"/><path fill="#232D4F" fill-rule="evenodd" d="M300.958 151.984V158.908L173.683 159.054L165.139 152.019L300.958 151.984Z" clip-rule="evenodd"/><path fill="#35416B" fill-rule="evenodd" d="M165.301 152.057L165.37 276.561L173.349 276.618L173.733 159L165.301 152.057Z" clip-rule="evenodd"/><path fill="#C14F0D" fill-rule="evenodd" d="M113.013 99.4977L245.53 85.4156L260.237 99.4977V239.895H113.013L97.998 225.69L113.013 99.4977Z" clip-rule="evenodd"/><path fill="#F96132" fill-rule="evenodd" d="M98.2903 85.7501H245.514V226.148H98.2903V85.7501Z" clip-rule="evenodd"/><path fill="#C14F0D" fill-rule="evenodd" d="M59.6925 58.0515L192.209 43.9656L206.916 58.0476V198.445H59.6925L44.6963 184.244L59.6925 58.0515Z" clip-rule="evenodd"/><path fill="#DC9300" fill-rule="evenodd" d="M59.6925 58.0515L192.209 43.9656L206.916 58.0476V198.445H59.6925L44.6963 184.244L59.6925 58.0515Z" clip-rule="evenodd"/><path fill="#F7A501" fill-rule="evenodd" d="M44.9692 44.304H192.193V184.701H44.9692V44.304Z" clip-rule="evenodd"/><path fill="#36426B" fill-rule="evenodd" d="M15.0192 14.0821L147.532 0L162.236 14.0821V154.48H15.0192L0 140.274L15.0192 14.0821Z" clip-rule="evenodd"/><path fill="#68749E" fill-rule="evenodd" d="M0.296143 0.334595H147.532V140.732H0.296143V0.334595Z" clip-rule="evenodd"/></svg>

<svg fill="none" viewBox="0 0 335 315"><path fill="#232D4F" fill-rule="evenodd" d="M162.032 150.065l156.476-17.817 16.15 17.817v164.272H162.009l.023-164.272z" clip-rule="evenodd"/><path fill="#4C5986" fill-rule="evenodd" d="M145.891 132.217h172.648v164.276H145.891V132.217z" clip-rule="evenodd"/><path fill="#161E3A" fill-rule="evenodd" d="M145.879 296.463l16.303 18.432 172.552-.588-16.115-17.875-172.74.031z" clip-rule="evenodd"/><path fill="#fff" fill-rule="evenodd" d="M165.408 152.103h135.47v124.396h-135.47V152.103z" clip-rule="evenodd"/><path fill="#232D4F" fill-rule="evenodd" d="M300.958 151.984v6.924l-127.275.146-8.544-7.035 135.819-.035z" clip-rule="evenodd"/><path fill="#35416B" fill-rule="evenodd" d="M165.301 152.057l.069 124.504 7.979.057.384-117.618-8.432-6.943z" clip-rule="evenodd"/><path fill="#C14F0D" fill-rule="evenodd" d="M113.013 99.498L245.53 85.416l14.707 14.082v140.397H113.013L97.998 225.69l15.015-126.192z" clip-rule="evenodd"/><path fill="#F96132" fill-rule="evenodd" d="M98.29 85.75h147.224v140.398H98.29V85.75z" clip-rule="evenodd"/><path fill="#C14F0D" fill-rule="evenodd" d="M59.693 58.051l132.516-14.085 14.707 14.082v140.397H59.692l-14.996-14.201L59.693 58.052z" clip-rule="evenodd"/><path fill="#DC9300" fill-rule="evenodd" d="M59.693 58.051l132.516-14.085 14.707 14.082v140.397H59.692l-14.996-14.201L59.693 58.052z" clip-rule="evenodd"/><path fill="#F7A501" fill-rule="evenodd" d="M44.97 44.304h147.223v140.397H44.969V44.304z" clip-rule="evenodd"/><path fill="#36426B" fill-rule="evenodd" d="M15.02 14.082L147.531 0l14.704 14.082V154.48H15.019L0 140.274 15.02 14.082z" clip-rule="evenodd"/><path fill="#68749E" fill-rule="evenodd" d="M.296.335h147.236v140.397H.296V.335z" clip-rule="evenodd"/></svg>
